packages/core/src/svgs/df.svg

<svg width="24" height="24" viewBox="0 0 24 24" fill="none" xmlns="http://www.w3.org/2000/svg">
<g clip-path="url(#clip0_31_9169)">
<path d="M0 0H24V24H0V0Z" fill="#222A49"/>
<path d="M6.42859 8.14307H12C12.5065 8.14307 13.0081 8.24283 13.4761 8.43667C13.9441 8.63051 14.3693 8.91463 14.7274 9.2728C15.0856 9.63097 15.3697 10.0562 15.5636 10.5241C15.7574 10.9921 15.8572 11.4937 15.8572 12.0002C15.8572 12.5067 15.7574 13.0083 15.5636 13.4763C15.3697 13.9442 15.0856 14.3695 14.7274 14.7276C14.3693 15.0858 13.9441 15.3699 13.4761 15.5637C13.0081 15.7576 12.5065 15.8574 12 15.8574H11.5714V14.4388H11.7557C13.3114 14.4388 14.5714 13.3074 14.5714 11.9316C14.5714 10.5602 13.3114 9.42878 11.7557 9.42878H7.7143V16.7145H6.42859V8.14307Z" fill="#FF9601"/>
<path d="M8.57141 5.57129H12.4286C14.1335 5.57129 15.7686 6.24858 16.9742 7.45417C18.1798 8.65976 18.8571 10.2949 18.8571 11.9999C18.8571 13.7048 18.1798 15.34 16.9742 16.5455C15.7686 17.7511 14.1335 18.4284 12.4286 18.4284H8.99998V10.7141H10.2857V17.1427H12.4286C13.7925 17.1427 15.1006 16.6009 16.0651 15.6364C17.0296 14.6719 17.5714 13.3638 17.5714 11.9999C17.5714 10.6359 17.0296 9.32778 16.0651 8.36331C15.1006 7.39884 13.7925 6.857 12.4286 6.857H8.57141V5.57129Z" fill="white"/>
</g>
<defs>
<clipPath id="clip0_31_9169">
<rect width="24" height="24" fill="white"/>
</clipPath>
</defs>
</svg>

<svg xmlns="http://www.w3.org/2000/svg" width="24" height="24" fill="none" viewBox="0 0 24 24"><g clip-path="url(#a)"><path fill="#222A49" d="M0 0h24v24H0z"/><path fill="#FF9601" d="M6.429 8.143H12a3.858 3.858 0 0 1 0 7.714h-.429V14.44h.185c1.555 0 2.815-1.132 2.815-2.507 0-1.372-1.26-2.503-2.815-2.503H7.714v7.286H6.43z"/><path fill="#fff" d="M8.571 5.571h3.858a6.428 6.428 0 0 1 0 12.857H9v-7.714h1.286v6.429h2.143a5.143 5.143 0 0 0 0-10.286H8.57z"/></g><defs><clipPath id="a"><path fill="#fff" d="M0 0h24v24H0z"/></clipPath></defs></svg>
